_includes/icons/color-advance.svg

<svg fill="#666" height="50" viewBox="0 0 48 48" width="50" xmlns="http://www.w3.org/2000/svg"><g fill="#1565c0"><path d="m46.101563 24-13.101563 11v-22z"/><path d="m10 20h4v8h-4z"/><path d="m4 20h4v8h-4z"/><path d="m16 20h4v8h-4z"/><path d="m22 20h14v8h-14z"/></g></svg>

<svg xmlns="http://www.w3.org/2000/svg" viewBox="0 0 48 48" width="50" height="50" fill="#666"><g fill="#1565c0"><path d="M 46.101563 24 L 33 35 L 33 13 Z"/><path d="M 10 20 L 14 20 L 14 28 L 10 28 Z"/><path d="M 4 20 L 8 20 L 8 28 L 4 28 Z"/><path d="M 16 20 L 20 20 L 20 28 L 16 28 Z"/><path d="M 22 20 L 36 20 L 36 28 L 22 28 Z"/></g></svg>
